client/src/assets/logos/sushiswap-grey.svg

<svg width="64" height="64" viewBox="0 0 64 64" fill="none" xmlns="http://www.w3.org/2000/svg">
<path d="M61.953 39.7625L50.0253 57.3705L49.9261 57.296C45.6362 63.0495 31.799 60.6688 18.7304 51.4185C5.73639 42.2424 -1.75265 30.5617 1.96713 24.2625L1.86788 24.188L13.7959 6.85271C17.9371 0.900732 31.923 3.20713 45.1155 12.5567C58.5807 21.3608 65.8465 33.7855 61.9533 39.7622L61.953 39.7625Z" stroke="black" stroke-miterlimit="10"/>
<path fill-rule="evenodd" clip-rule="evenodd" d="M60.143 38.7456C56.4978 43.9289 43.8259 41.3247 31.6503 32.7936C19.2264 24.2378 11.9606 13.3752 15.5811 8.19193C19.2016 3.00864 31.8982 5.61281 44.0739 14.1439C56.2248 22.7001 63.4906 33.5623 60.1427 38.7456H60.143ZM48.736 30.9584C46.9258 33.5376 40.7016 32.2729 34.4771 28.1063C28.5257 23.9647 24.9051 18.5335 26.7154 15.9543C28.5257 13.3752 34.7498 14.6399 40.9743 18.8065C46.9258 22.948 50.5463 28.3793 48.736 30.9584Z" fill="white" stroke="black" stroke-miterlimit="10"/>
</svg>

<?xml version="1.0" encoding="UTF-8"?>
<svg id="Layer_1" data-name="Layer 1" xmlns="http://www.w3.org/2000/svg" viewBox="0 0 64 64">
  <defs>
    <style>
      .cls-1 {
        fill-rule: evenodd;
      }

      .cls-1, .cls-2 {
        fill: none;
        stroke: #000;
        stroke-miterlimit: 10;
      }
    </style>
  </defs>
  <path class="cls-2" d="M61.95,39.76l-11.93,17.61-.1-.07c-4.29,5.75-18.13,3.37-31.2-5.88C5.74,42.24-1.75,30.56,1.97,24.26l-.1-.07L13.8,6.85c4.14-5.95,18.13-3.65,31.32,5.7,13.47,8.8,20.73,21.23,16.84,27.21h0Z"/>
  <path class="cls-1" d="M60.14,38.75c-3.65,5.18-16.32,2.58-28.49-5.95C19.23,24.24,11.96,13.38,15.58,8.19c3.62-5.18,16.32-2.58,28.49,5.95,12.15,8.56,19.42,19.42,16.07,24.6h0ZM48.74,30.96c-1.81,2.58-8.03,1.31-14.26-2.85-5.95-4.14-9.57-9.57-7.76-12.15,1.81-2.58,8.03-1.31,14.26,2.85,5.95,4.14,9.57,9.57,7.76,12.15Z"/>
</svg>
